dist/svg/static/train-small.svg

<svg xmlns="http://www.w3.org/2000/svg" width="24" height="24" viewBox="0 0 24 24"><g fill="none" stroke="currentColor"><path d="M3.5 23.5L6 21M17 21l2.5 2.5M10 20.5L6 18c-.9-.6-1.5-1.6-1.5-2.7V5.5c0-1.6 1.6-3 3.2-3h7.8c1.6 0 3 1.4 3 3v9.8c0 1.2-.6 2-1.5 2.7l-4 2.5h-3zM8 .5h7M11.5.5v2"/><path d="M5.46 3.432L9.5 11.5h4l4.065-8.131M8.5 13c.75 0 1.5.75 1.5 1.5S9.25 16 8.5 16 7 15.25 7 14.5 7.75 13 8.5 13M14.5 13c.75 0 1.5.75 1.5 1.5s-.75 1.5-1.5 1.5-1.5-.75-1.5-1.5.75-1.5 1.5-1.5"/></g></svg>

<?xml version="1.0" encoding="UTF-8" standalone="no"?>
<svg width="24px" height="24px" viewBox="0 0 24 24" version="1.1" xmlns="http://www.w3.org/2000/svg" xmlns:xlink="http://www.w3.org/1999/xlink">
    <!-- Generator: sketchtool 46.2 (44496) - http://www.bohemiancoding.com/sketch -->
    <title>train-small</title>
    <desc>Created with sketchtool.</desc>
    <defs></defs>
    <g id="icons-published" stroke="none" stroke-width="1" fill="none" fill-rule="evenodd">
        <g id="briefing" transform="translate(-1220.000000, -2202.000000)"></g>
        <g id="train-small" stroke="#000000">
            <path d="M3.5,23.5 L6,21 L3.5,23.5 Z M17,21 L19.5,23.5 L17,21 Z M10,20.5 L6,18 C5.1,17.4 4.5,16.4 4.5,15.3 L4.5,5.5 C4.5,3.9 6.1,2.5 7.7,2.5 L15.5,2.5 C17.1,2.5 18.5,3.9 18.5,5.5 L18.5,15.3 C18.5,16.5 17.9,17.3 17,18 L13,20.5 L10,20.5 Z M8,0.5 L15,0.5 L8,0.5 Z M11.5,0.5 L11.5,2.5 L11.5,0.5 Z" id="Shape"></path>
            <path d="M5.5,3.4 L9.5,11.5 L13.5,11.5 L17.6,3.4 M8.5,13 C9.3,13 10,13.8 10,14.5 C10,15.2 9.2,16 8.5,16 C7.8,16 7,15.2 7,14.5 C7,13.8 7.8,13 8.5,13 M14.5,13 C15.3,13 16,13.8 16,14.5 C16,15.2 15.2,16 14.5,16 C13.8,16 13,15.2 13,14.5 C13,13.8 13.8,13 14.5,13" id="Shape"></path>
        </g>
    </g>
</svg>
